X:1
T:Tantum ergo - Carturan
T:James Gibb editions
%%score { 1 | 2 } 3
L:1/8
Q:1/4=72
M:3/4
K:Bb
V:1 treble nm="Soprano I" snm="S"
V:2 treble 
V:3 treble nm="Alto" snm="A"
V:1
"^Tantum ergo Sacramentum""^Carlo Carturan\n(1858-1936)" (d2 e2) d2 | c4 d2 | (dc B2) c2 | d4 d2 | %4
w: Tan\- * tum|er- go|Sa\- * * cra-|men- tum,|
w: Ge\- * ni-|to- ri|Ge\- * * ni-|to- que|
 d4 f2 | (edef) g2 | (c2 d2) e2 | d6 |[M:3/4] (e2 d2) c2 | d4 d2 | c4 c2 | d4 z2 | z6 | %13
w: ve- ne-|re\- * * * mur|cer\- * nu-|i,|ve\- * ne-|re- mur|cer- nu-|i,||
w: laus et|ju\- * * * bi-|la\- * ti-|o,|laus * et|ju- bi-|la- ti-|o,||
 (e2 f2) e2 | d2 d2 dd | d4 c2 | (c2 B2) e2 | e4 d2 | (g2 B2) c2 | d4 z2 | (d2 e2) d2 | c4 d2 | %22
w: et * an-|ti- quum do- cu-|men- tum|no\- * vo|ce- dat|ri\- * tu-|i:|prae\- * stet|fi- des|
w: sa\- * lus,|ho- nor, vir- tus|quo- que|sit * et|be- ne-|di\- * cti-|o,|pro\- * ce-|den- ti|
 (c2 d2) e2 | A4 B2 | (B2 c2) e2 | d4 e2 | g4 e2 | d6 | (G2 A2) B2 | (c2 e2) c2 | B2 A4 | =B6 :| %32
w: sup\- * ple-|men- tum|sen\- * su-|um de|fe- ctu-|i,|sen\- * su-|um * de|fe- ctu-|i.|
w: ab * u-|tro- que|com\- * par|sit lau-|da- ti-|o,|com\- * par|sit * lau-|da- ti-|o.|
 c6 | =B6 |] %34
w: A-|men.|
w: ||
V:2
 B4 B2 | A4 ^F2 | G4 G2 | ^F4 F2 | B4 =B2 | c4 c2 | A4 A2 | B6 |[M:3/4] G4 G2 | (B2 c2) B2 | %10
w: Tan- tum|er- go|Sa- cra-|men- tum,|ve- ne-|re- mur|cer- nu-|i,|ve- ne-|re\- * mur|
w: Ge- ni-|to- ri|Ge- ni-|to- que|laus et|ju- bi-|la- ti-|o,|laus et|ju\- * bi-|
 (B2 AG) A2 | B4 z2 | (B2 c2) B2 | G4 G2 | B4 B2 | G4 G2 | (^F2 G2) G2 | A4 B2 | (B2 G2) G2 | %19
w: cer\- * * nu-|i,|et * an-|ti- quum|do- cu-|men- tum|no\- * vo|ce- dat|ri\- * tu-|
w: la\- * * ti-|o,|sa\- * lus,|ho- nor,|vir- tus|quo- que|sit * et|be- ne-|di\- * cti-|
 ^F4 z2 | B4 B2 | A4 ^F2 | G4 G2 | =F4 F2 | G4 G2 | B4 B2 | (c2 B2) c2 | B6 | G4 G2 | G4 G2 | %30
w: i:|prae- stet|fi- des|sup- ple-|men- tum|sen- su-|um de|fe\- * ctu-|i,|sen- su-|um de|
w: o,|pro- ce-|den- ti|ab u-|tro- que|com- par|sit lau-|da\- * ti-|o,|com- par|sit lau-|
 G4 ^F2 | G6 :| E6 | D6 |] %34
w: fe- ctu-|i.|A-|men.|
w: da- ti-|o.|||
V:3
 G4 G2 | A4 D2 | E4 E2 | D4 D2 | z6 | C4 E2 | F4 ^F2 | G3 G G2 |[M:3/4] (C2 D2) E2 | F4 F2 | %10
w: Tan- tum|er- go|Sa- cra-|men- tum,||ve- ne-|re- mur|cer- nu- i,|ve\- * ne-|re- mur|
w: Ge- ni-|to- ri|Ge- ni-|to- que||laus et|ju- bi-|la- ti- o,|laus * et|ju- bi-|
 F4 F2 | B,4 z2 | z6 | z6 | (G2 A2) G2 | E4 E2 | (D2 E2) C2 | (F2 G2) F2 | E4 E2 | D4 z2 | G4 G2 | %21
w: cer- nu-|i,|||do\- * cu-|men- tum|no\- * vo|ce\- * dat|ri- tu-|i:|prae- stet|
w: la- ti-|o,|||vir\- * tus|quo- que|sit * et|be\- * ne-|di- cti-|o,|pro- ce-|
 A4 D2 | (E2 D2) C2 | (F3 E) D2 | E4 C2 | (G2 F2) G2 | E4 C2 | G6 | (B,2 C2) D2 | (E2 C2) E2 | %30
w: fi- des|sup\- * ple-|men\- * tum|sen- su-|um * de|fe- ctu-|i,|sen\- * su-|um * de|
w: den- ti|ab * u-|tro\- * que|com- par|sit * lau-|da- ti-|o,|com\- * par|sit * lau-|
 D4 D2 | G,6 :| C6 | G,6 |] %34
w: fe- ctu-|i.|A-|men.|
w: da- ti-|o.|||

